X:685
T: Crushing the Twigs
T: Mil na Maid\'i
S: B.Breathnach: "Ceol Rince na hEireann" II/183
Z: B.Black
L: 1/8
M: 4/4
R: reel
K: D
E|FD (3DDD FDGE|FDDF EDEG|FD (3DDD FDEF|G2 BG EFGE|
FD (3DDD FDEG|FD (3DDD EDEG|FD (3DDD FDEF|(3GAG BG EFG||
B|A2 Ad BGAF|DFAF EFGB|A2 Ac NGAF|(3GGG BG EFGB|
A2 Ad BGAF|DFAF EFGB|A2 Ac NGAF|(3GGG BG EFG||
g|fd (3ddd fdeg|fd (3ddd e^deg|fd (3ddd fdef|g2 bg efge|
fd (3ddd fdeg|fd (3ddd e^deg|fd (3ddd fdef|g2 bg egf||
e|d2 Ad BGAF|DFAF EFGB|A2 Ac BGAF|(3GGG BG EFGA|
d2 Ad BGAF|DFAF EFGB|A2 Ac BGAF|(3GGG BG EFG||

